SVG_Azure_Grouped/Deployment/Azure Artifact.svg

<?xml version="1.0" encoding="UTF-8" standalone="no"?>
<!-- Generated by Microsoft Visio, SVG Export Azure Artifact.svg Page-1 -->

<svg
   xmlns:dc="http://purl.org/dc/elements/1.1/"
   xmlns:cc="http://creativecommons.org/ns#"
   xmlns:rdf="http://www.w3.org/1999/02/22-rdf-syntax-ns#"
   xmlns:svg="http://www.w3.org/2000/svg"
   xmlns="http://www.w3.org/2000/svg"
   xmlns:sodipodi="http://sodipodi.sourceforge.net/DTD/sodipodi-0.dtd"
   xmlns:inkscape="http://www.inkscape.org/namespaces/inkscape"
   width="0.78733969in"
   height="0.78744942in"
   viewBox="0 0 56.688456 56.696499"
   xml:space="preserve"
   class="st10"
   version="1.1"
   id="svg61"
   sodipodi:docname="Azure Artifact.svg"
   style="font-size:12px;overflow:visible;color-interpolation-filters:sRGB;fill:none;fill-rule:evenodd;stroke-linecap:square;stroke-miterlimit:3"
   inkscape:version="0.92.5 (2060ec1f9f, 2020-04-08)"><metadata
   id="metadata67"><rdf:RDF><cc:Work
       rdf:about=""><dc:format>image/svg+xml</dc:format><dc:type
         rdf:resource="http://purl.org/dc/dcmitype/StillImage" /></cc:Work></rdf:RDF></metadata><defs
   id="defs65" /><sodipodi:namedview
   pagecolor="#ffffff"
   bordercolor="#666666"
   borderopacity="1"
   objecttolerance="10"
   gridtolerance="10"
   guidetolerance="10"
   inkscape:pageopacity="0"
   inkscape:pageshadow="2"
   inkscape:window-width="640"
   inkscape:window-height="480"
   id="namedview63"
   showgrid="false"
   inkscape:zoom="1.8365233"
   inkscape:cx="37.795184"
   inkscape:cy="18.900351"
   inkscape:window-x="0"
   inkscape:window-y="0"
   inkscape:window-maximized="0"
   inkscape:current-layer="svg61" />
	<style
   type="text/css"
   id="style2">
	<![CDATA[
		.st1 {fill:#b41055;stroke:none;stroke-linecap:butt;stroke-width:0.978813}
		.st2 {fill:#e86299;stroke:none;stroke-linecap:butt;stroke-width:0.978813}
		.st3 {fill:#f173a7;stroke:none;stroke-linecap:butt;stroke-width:0.978813}
		.st4 {fill:#c12664;stroke:none;stroke-linecap:butt;stroke-width:0.978813}
		.st5 {fill:#cf3071;stroke:none;stroke-linecap:butt;stroke-width:0.978813}
		.st6 {fill:#b5205c;stroke:none;stroke-linecap:butt;stroke-width:0.978813}
		.st7 {fill:#fe90be;stroke:none;stroke-linecap:butt;stroke-width:0.978813}
		.st8 {fill:#cb2e6f;stroke:none;stroke-linecap:butt;stroke-width:0.978813}
		.st9 {fill:#900740;stroke:none;stroke-linecap:butt;stroke-width:0.978813}
		.st10 {fill:none;fill-rule:evenodd;font-size:12px;overflow:visible;stroke-linecap:square;stroke-miterlimit:3}
	]]>
	</style>

	<g
   id="g59"
   transform="translate(-5.6693772,-5.6678)">
		<title
   id="title4">Page-1</title>
		<g
   id="group17470-1"
   transform="translate(5.66929,-34.0157)">
			<title
   id="title6">Azure Artifact.17470</title>
			<g
   id="shape17471-2">
				<title
   id="title8">path2</title>
				<path
   d="M 21.44,96.38 H 2.47 C 1.11,96.38 0,95.26 0,93.89 V 70.5 c 0,-1.37 1.11,-2.47 2.47,-2.47 h 18.97 z"
   class="st1"
   id="path10"
   inkscape:connector-curvature="0"
   style="fill:#b41055;stroke:none;stroke-width:0.97881299;stroke-linecap:butt" />
			</g>
			<g
   id="shape17472-4"
   transform="translate(46.2286)">
				<title
   id="title13">path4</title>
				<path
   d="M 8.04,96.38 H 0 V 68.03 h 8.04 c 1.33,0 2.42,1.09 2.42,2.43 v 23.49 c 0,1.34 -1.09,2.43 -2.42,2.43 z"
   class="st2"
   id="path15"
   inkscape:connector-curvature="0"
   style="fill:#e86299;stroke:none;stroke-width:0.97881299;stroke-linecap:butt" />
			</g>
			<g
   id="shape17473-6"
   transform="translate(18.9943)">
				<title
   id="title18">path6</title>
				<path
   d="M 2.62,96.38 H 28.33 V 68.03 H 0 v 25.72 c 0,1.44 1.17,2.63 2.62,2.63 z"
   class="st3"
   id="path20"
   inkscape:connector-curvature="0"
   style="fill:#f173a7;stroke:none;stroke-width:0.97881299;stroke-linecap:butt" />
			</g>
			<g
   id="shape17474-8"
   transform="translate(9.6794,-28.3465)">
				<title
   id="title23">path8</title>
				<path
   d="M 35.07,68.03 H 2.54 C 1.14,68.03 0,69.17 0,70.58 v 25.8 h 37.62 v -25.8 c 0,-1.41 -1.14,-2.55 -2.55,-2.55 z"
   class="st4"
   id="path25"
   inkscape:connector-curvature="0"
   style="fill:#c12664;stroke:none;stroke-width:0.97881299;stroke-linecap:butt" />
			</g>
			<g
   id="shape17475-10"
   transform="translate(9.6794,-28.3465)">
				<title
   id="title28">path10</title>
				<path
   d="M 28.18,68.03 H 2.54 C 1.14,68.03 0,69.17 0,70.58 v 25.8 h 28.18 z"
   class="st5"
   id="path30"
   inkscape:connector-curvature="0"
   style="fill:#cf3071;stroke:none;stroke-width:0.97881299;stroke-linecap:butt" />
			</g>
			<g
   id="shape17476-12"
   transform="translate(18.9713,-47.3139)">
				<title
   id="title33">path12</title>
				<path
   d="M 7.27,96.38 H 2.34 C 1.05,96.38 0,95.32 0,94.03 0,92.74 1.05,91.69 2.34,91.69 h 4.93 c 1.28,0 2.34,1.05 2.34,2.34 0,1.29 -1.04,2.35 -2.34,2.35 z"
   class="st6"
   id="path35"
   inkscape:connector-curvature="0"
   style="fill:#b5205c;stroke:none;stroke-width:0.97881299;stroke-linecap:butt" />
			</g>
			<g
   id="shape17477-14"
   transform="translate(23.774,-9.42625)">
				<title
   id="title38">path14</title>
				<rect
   x="0"
   y="93.974701"
   width="14.0266"
   height="2.4033"
   class="st7"
   id="rect40"
   style="fill:#fe90be;stroke:none;stroke-width:0.97881299;stroke-linecap:butt" />
			</g>
			<g
   id="shape17478-16"
   transform="translate(23.774,-4.65342)">
				<title
   id="title43">path16</title>
				<rect
   x="0"
   y="93.974602"
   width="7.9800401"
   height="2.4033101"
   class="st7"
   id="rect45"
   style="fill:#fe90be;stroke:none;stroke-width:0.97881299;stroke-linecap:butt" />
			</g>
			<g
   id="shape17479-18"
   transform="translate(28.4062,-18.8283)">
				<title
   id="title48">path18</title>
				<path
   d="M 7.11,96.38 H 2.44 C 1.09,96.38 0,95.29 0,93.94 0,92.59 1.09,91.5 2.44,91.5 h 4.67 c 1.35,0 2.44,1.09 2.44,2.44 0,1.35 -1.09,2.44 -2.44,2.44 z"
   class="st8"
   id="path50"
   inkscape:connector-curvature="0"
   style="fill:#cb2e6f;stroke:none;stroke-width:0.97881299;stroke-linecap:butt" />
			</g>
			<g
   id="shape17480-20"
   transform="translate(9.38413,-18.8283)">
				<title
   id="title53">path20</title>
				<path
   d="M 7.11,96.38 H 2.44 C 1.09,96.38 0,95.29 0,93.94 0,92.59 1.09,91.5 2.44,91.5 h 4.67 c 1.35,0 2.44,1.09 2.44,2.44 0,1.35 -1.09,2.44 -2.44,2.44 z"
   class="st9"
   id="path55"
   inkscape:connector-curvature="0"
   style="fill:#900740;stroke:none;stroke-width:0.97881299;stroke-linecap:butt" />
			</g>
		</g>
	</g>
</svg>

<?xml version="1.0" encoding="UTF-8" standalone="no"?>
<!DOCTYPE svg PUBLIC "-//W3C//DTD SVG 1.1//EN" "http://www.w3.org/Graphics/SVG/1.1/DTD/svg11.dtd">
<!-- Generated by Microsoft Visio, SVG Export Azure Artifact.svg Page-1 -->
<svg xmlns="http://www.w3.org/2000/svg" xmlns:xlink="http://www.w3.org/1999/xlink" xmlns:ev="http://www.w3.org/2001/xml-events"
		width="0.944882in" height="1.33858in" viewBox="0 0 68.0315 96.378" xml:space="preserve" color-interpolation-filters="sRGB"
		class="st10">
	<style type="text/css">
	<![CDATA[
		.st1 {fill:#b41055;stroke:none;stroke-linecap:butt;stroke-width:0.978813}
		.st2 {fill:#e86299;stroke:none;stroke-linecap:butt;stroke-width:0.978813}
		.st3 {fill:#f173a7;stroke:none;stroke-linecap:butt;stroke-width:0.978813}
		.st4 {fill:#c12664;stroke:none;stroke-linecap:butt;stroke-width:0.978813}
		.st5 {fill:#cf3071;stroke:none;stroke-linecap:butt;stroke-width:0.978813}
		.st6 {fill:#b5205c;stroke:none;stroke-linecap:butt;stroke-width:0.978813}
		.st7 {fill:#fe90be;stroke:none;stroke-linecap:butt;stroke-width:0.978813}
		.st8 {fill:#cb2e6f;stroke:none;stroke-linecap:butt;stroke-width:0.978813}
		.st9 {fill:#900740;stroke:none;stroke-linecap:butt;stroke-width:0.978813}
		.st10 {fill:none;fill-rule:evenodd;font-size:12px;overflow:visible;stroke-linecap:square;stroke-miterlimit:3}
	]]>
	</style>

	<g>
		<title>Page-1</title>
		<g id="group17073-1" transform="translate(5.66929,-34.0157)">
			<title>Azure Artifact.17073</title>
			<g id="shape17074-2">
				<title>path2</title>
				<path d="M21.44 96.38 L2.47 96.38 C1.11 96.38 0 95.26 0 93.89 L0 70.5 C0 69.13 1.11 68.03 2.47 68.03 L21.44 68.03
							 L21.44 96.38 Z" class="st1"/>
			</g>
			<g id="shape17075-4" transform="translate(46.2286,-2.84217E-13)">
				<title>path4</title>
				<path d="M8.04 96.38 L0 96.38 L0 68.03 L8.04 68.03 C9.37 68.03 10.46 69.12 10.46 70.46 L10.46 93.95 C10.46 95.29
							 9.37 96.38 8.04 96.38 Z" class="st2"/>
			</g>
			<g id="shape17076-6" transform="translate(18.9943,-2.84217E-13)">
				<title>path6</title>
				<path d="M2.62 96.38 L28.33 96.38 L28.33 68.03 L0 68.03 L0 93.75 C0 95.19 1.17 96.38 2.62 96.38 Z" class="st3"/>
			</g>
			<g id="shape17077-8" transform="translate(9.6794,-28.3465)">
				<title>path8</title>
				<path d="M35.07 68.03 L2.54 68.03 C1.14 68.03 0 69.17 0 70.58 L0 96.38 L37.62 96.38 L37.62 70.58 C37.62 69.17 36.48
							 68.03 35.07 68.03 Z" class="st4"/>
			</g>
			<g id="shape17078-10" transform="translate(9.6794,-28.3465)">
				<title>path10</title>
				<path d="M28.18 68.03 L2.54 68.03 C1.14 68.03 0 69.17 0 70.58 L0 96.38 L28.18 96.38 L28.18 68.03 Z" class="st5"/>
			</g>
			<g id="shape17079-12" transform="translate(18.9713,-47.3139)">
				<title>path12</title>
				<path d="M7.27 96.38 L2.34 96.38 C1.05 96.38 0 95.32 0 94.03 C0 92.74 1.05 91.69 2.34 91.69 L7.27 91.69 C8.55 91.69
							 9.61 92.74 9.61 94.03 C9.61 95.32 8.57 96.38 7.27 96.38 Z" class="st6"/>
			</g>
			<g id="shape17080-14" transform="translate(23.774,-9.42625)">
				<title>path14</title>
				<rect x="0" y="93.9747" width="14.0266" height="2.4033" class="st7"/>
			</g>
			<g id="shape17081-16" transform="translate(23.774,-4.65342)">
				<title>path16</title>
				<rect x="0" y="93.9746" width="7.98004" height="2.40331" class="st7"/>
			</g>
			<g id="shape17082-18" transform="translate(28.4062,-18.8283)">
				<title>path18</title>
				<path d="M7.11 96.38 L2.44 96.38 C1.09 96.38 0 95.29 0 93.94 C0 92.59 1.09 91.5 2.44 91.5 L7.11 91.5 C8.46 91.5 9.55
							 92.59 9.55 93.94 C9.55 95.29 8.46 96.38 7.11 96.38 Z" class="st8"/>
			</g>
			<g id="shape17083-20" transform="translate(9.38413,-18.8283)">
				<title>path20</title>
				<path d="M7.11 96.38 L2.44 96.38 C1.09 96.38 0 95.29 0 93.94 C0 92.59 1.09 91.5 2.44 91.5 L7.11 91.5 C8.46 91.5 9.55
							 92.59 9.55 93.94 C9.55 95.29 8.46 96.38 7.11 96.38 Z" class="st9"/>
			</g>
		</g>
	</g>
</svg>
